X: 20
T:Fig for a Kiss, A (#200)
M:9/8
L:1/8
S:Preston's Selections of Reels & Country Dances, London 1768
K:G
E2 B BGE BGE|FAE AFd AFD|EFG ABc BAG|BeB AGF E3:||
eBe geg bge|dAd fdf afd|eBe geg bge|gfe Be^d e3|
eBe geg bge|dAd fdf afd|e/2f/2gf edc BAG|BeB AGF E3||

% Output from ABC2Win  Version 2.1 k pre2 on 10/25/2000
